packages/bpk-svgs/src/icons/lg/center-location.svg

<svg viewBox="0 0 24 24" xmlns="http://www.w3.org/2000/svg">
<path d="M6 4C4.89543 4 4 4.89543 4 6V8C4 8.55228 3.55228 9 3 9C2.44772 9 2 8.55228 2 8V6C2 3.79086 3.79086 2 6 2H8C8.55228 2 9 2.44772 9 3C9 3.55228 8.55228 4 8 4H6ZM15 3C15 2.44772 15.4477 2 16 2H18C20.2091 2 22 3.79086 22 6V8C22 8.55228 21.5523 9 21 9C20.4477 9 20 8.55228 20 8V6C20 4.89543 19.1046 4 18 4H16C15.4477 4 15 3.55228 15 3ZM3 15C3.55228 15 4 15.4477 4 16V18C4 19.1046 4.89543 20 6 20H8C8.55228 20 9 20.4477 9 21C9 21.5523 8.55228 22 8 22H6C3.79086 22 2 20.2091 2 18V16C2 15.4477 2.44772 15 3 15ZM21 15C21.5523 15 22 15.4477 22 16V18C22 20.2091 20.2091 22 18 22H16C15.4477 22 15 21.5523 15 21C15 20.4477 15.4477 20 16 20H18C19.1046 20 20 19.1046 20 18V16C20 15.4477 20.4477 15 21 15ZM13 14.2616C13 14.0334 13.1558 13.8373 13.3702 13.7592C14.9045 13.1998 16 11.7278 16 10C16 7.79086 14.2091 6 12 6C9.79086 6 8 7.79086 8 10C8 11.7278 9.09552 13.1998 10.6298 13.7592C10.8442 13.8373 11 14.0334 11 14.2616V17C11 17.5523 11.4477 18 12 18C12.5523 18 13 17.5523 13 17V14.2616Z" />
</svg>

<svg xmlns="http://www.w3.org/2000/svg" viewBox="0 0 24 24"><path d="M6 4a2 2 0 0 0-2 2v2a1 1 0 0 1-2 0V6a4 4 0 0 1 4-4h2a1 1 0 0 1 0 2H6zm9-1a1 1 0 0 1 1-1h2a4 4 0 0 1 4 4v2a1 1 0 1 1-2 0V6a2 2 0 0 0-2-2h-2a1 1 0 0 1-1-1zM3 15a1 1 0 0 1 1 1v2a2 2 0 0 0 2 2h2a1 1 0 1 1 0 2H6a4 4 0 0 1-4-4v-2a1 1 0 0 1 1-1zm18 0a1 1 0 0 1 1 1v2a4 4 0 0 1-4 4h-2a1 1 0 1 1 0-2h2a2 2 0 0 0 2-2v-2a1 1 0 0 1 1-1zm-8-.738c0-.229.156-.425.37-.503A4.002 4.002 0 0 0 12 6a4 4 0 0 0-1.37 7.76c.214.077.37.273.37.502V17a1 1 0 1 0 2 0v-2.738z"/></svg>
